X: 8624
T: Crooked Road To Dublin, The
R: reel
M: 4/4
K: Gmajor
F|G2(3GGG FGAF|G2FG AdcA|GBAG FGAg|fdce (3dcB cA|
G2(3GGG FGAF|G2FG AdcA|GBAG FGAg|fdce d2cA||
dg~g2 fgaf|dg~g2 agfd|dg~g2 fgag|fdce d2cA|
dg~g2 fgaf|dg~g2 a2ga|(3bag gf gbag|fdcA d2cA||

